X:2661
L:1/8
M:3/4
K:D
 FA |:"D" B2 A2 FD |"A7" C2 EG c2 | B2 A2 GE |"D" D2 FA d2 | B2 A2 FD |"A7" C2 EG c2 | B2 A2 GC |1 
"D" D2 z2 FA :|2"D" D2 z2 F2 |:"G" .G2 !>!B3 G |"D" .F2 !>!A3 F |"A7" .E2 !>!c3 c |"D" cd dF A2 | 
"G" .G2 !>!B3 G |"D" .F2 !>!A3 F |"A7" Ec cE Ec |1"D" d2 z2 F2 :|2"D" d2 z2 z2 |]

